svg/color/xusd.svg

<svg width="257" height="257" viewBox="0 0 257 257" fill="none" xmlns="http://www.w3.org/2000/svg">
<path d="M128.5 257C199.469 257 257 199.469 257 128.5C257 57.5314 199.469 0 128.5 0C57.5314 0 0 57.5314 0 128.5C0 199.469 57.5314 257 128.5 257Z" fill="#3C8464"/>
<path d="M56.3112 124.295C66.9865 118.233 68.0064 109.563 69.389 101.8C70.2163 97.12 70.5222 95.2954 70.5222 95.2954H89.4816C89.4816 95.2954 88.5864 100.27 87.7477 104.962C86.3652 112.725 86.6145 118.38 76.2565 124.295L61.4449 132.704C50.7696 138.756 49.7496 147.437 48.3671 155.199C47.5398 159.88 47.2338 161.704 47.2338 161.704H28.2744L30.0083 152.038C31.3795 144.275 31.1416 138.62 41.4995 132.704L56.3112 124.295Z" fill="white"/>
<path d="M51.9368 121.961H44.2307C41.1214 121.982 38.1037 120.91 35.7049 118.931C33.3061 116.953 31.6789 114.195 31.1076 111.138L28.2744 95.2727H47.1885L51.9368 121.961Z" fill="white"/>
<path d="M65.7852 135.05H73.5253C76.6316 135.029 79.6465 136.1 82.0431 138.076C84.4398 140.052 86.0659 142.808 86.6371 145.861L89.4816 161.727H70.5675L65.7852 135.05Z" fill="white"/>
<path d="M166.008 152.4C162.918 152.377 159.854 151.837 156.942 150.802C153.828 149.727 150.966 148.027 148.533 145.805L155.491 137.441C157.124 138.746 158.923 139.828 160.84 140.66C162.546 141.441 164.393 141.866 166.269 141.906C167.66 142.013 169.052 141.718 170.28 141.056C170.677 140.795 170.999 140.435 171.216 140.012C171.432 139.589 171.535 139.117 171.516 138.643C171.538 138.137 171.39 137.638 171.096 137.226C170.751 136.796 170.329 136.434 169.85 136.161C169.224 135.793 168.573 135.471 167.901 135.198C167.141 134.892 166.269 134.552 165.271 134.178L159.526 131.764C158.275 131.275 157.085 130.643 155.979 129.883C154.858 129.112 153.857 128.181 153.01 127.117C152.135 126.023 151.449 124.789 150.981 123.468C150.469 122.013 150.216 120.478 150.233 118.935C150.224 117.006 150.662 115.102 151.514 113.371C152.373 111.633 153.58 110.09 155.061 108.838C156.666 107.487 158.506 106.442 160.489 105.756C162.71 104.978 165.049 104.594 167.402 104.622C170.15 104.642 172.874 105.145 175.448 106.107C178.186 107.118 180.669 108.715 182.724 110.787L176.627 118.448C175.218 117.445 173.697 116.612 172.094 115.966C170.59 115.388 168.99 115.1 167.379 115.116C166.148 115.05 164.922 115.321 163.832 115.898C163.426 116.133 163.092 116.475 162.866 116.887C162.641 117.298 162.532 117.764 162.552 118.233C162.569 118.786 162.75 119.323 163.073 119.773C163.396 120.223 163.846 120.566 164.365 120.76C165.566 121.349 167.243 122.04 169.362 122.845L175.029 125.044C177.645 125.987 179.951 127.634 181.692 129.803C183.335 132.087 184.161 134.857 184.038 137.668C184.035 139.627 183.611 141.562 182.796 143.343C181.981 145.124 180.793 146.709 179.312 147.992C177.645 149.417 175.722 150.513 173.646 151.222C171.187 152.053 168.603 152.452 166.008 152.4V152.4Z" fill="white"/>
<path d="M191.409 151.551V105.45H205.008C208.257 105.412 211.493 105.843 214.618 106.73C217.38 107.503 219.935 108.882 222.098 110.765C224.253 112.715 225.918 115.145 226.959 117.859C228.193 121.193 228.782 124.731 228.693 128.285C228.777 131.858 228.201 135.415 226.993 138.779C225.981 141.53 224.344 144.009 222.211 146.02C220.111 147.934 217.616 149.362 214.902 150.202C211.926 151.123 208.826 151.578 205.711 151.551H191.409ZM203.614 141.759H204.317C205.897 141.773 207.472 141.571 208.997 141.159C210.418 140.787 211.723 140.067 212.794 139.062C213.957 137.918 214.821 136.505 215.31 134.948C215.991 132.795 216.305 130.543 216.239 128.285C216.31 126.049 215.995 123.818 215.31 121.689C214.819 120.176 213.954 118.812 212.794 117.723C211.711 116.764 210.406 116.09 208.997 115.762C207.463 115.405 205.892 115.23 204.317 115.241H203.614V141.759Z" fill="white"/>
<path d="M121.125 153.127C114.617 153.127 109.647 151.34 106.214 147.766C102.781 144.191 101.064 138.496 101.064 130.68V105.658H112.44V131.752C112.44 136.327 113.183 139.521 114.669 141.332C116.155 143.143 118.307 144.048 121.125 144.048C123.943 144.048 126.121 143.143 127.658 141.332C129.195 139.521 129.964 136.327 129.964 131.752V105.658H140.878V130.68C140.878 138.496 139.187 144.191 135.805 147.766C132.474 151.34 127.581 153.127 121.125 153.127Z" fill="white"/>
<path d="M43.2455 78.6931C51.9389 63.7942 64.385 51.4335 79.3435 42.843C94.302 34.2524 111.251 29.7319 128.5 29.7319C145.75 29.7319 162.699 34.2524 177.657 42.843C192.616 51.4335 205.062 63.7942 213.755 78.6931H221.597C212.578 61.8442 199.155 47.7589 182.76 37.9389C166.364 28.1189 147.612 22.9324 128.5 22.9324C109.389 22.9324 90.6363 28.1189 74.241 37.9389C57.8457 47.7589 44.4228 61.8442 35.4033 78.6931H43.2455Z" fill="white"/>
<path d="M213.755 178.306C205.062 193.205 192.616 205.566 177.657 214.157C162.699 222.747 145.75 227.268 128.5 227.268C111.251 227.268 94.302 222.747 79.3435 214.157C64.385 205.566 51.9389 193.205 43.2455 178.306H35.4033C44.4228 195.155 57.8457 209.241 74.241 219.061C90.6363 228.881 109.389 234.067 128.5 234.067C147.612 234.067 166.364 228.881 182.76 219.061C199.155 209.241 212.578 195.155 221.597 178.306H213.755Z" fill="white"/>
</svg>

<svg xmlns="http://www.w3.org/2000/svg" width="257" height="257" fill="none" viewBox="0 0 257 257"><path fill="#3C8464" d="M128.5 257c70.969 0 128.5-57.531 128.5-128.5S199.469 0 128.5 0 0 57.531 0 128.5 57.531 257 128.5 257"/><path fill="#fff" d="M56.311 124.295c10.676-6.062 11.695-14.732 13.078-22.495a881 881 0 0 0 1.133-6.505h18.96s-.896 4.975-1.734 9.667c-1.383 7.763-1.133 13.418-11.492 19.333l-14.811 8.409c-10.675 6.052-11.695 14.733-13.078 22.495a894 894 0 0 0-1.133 6.505h-18.96l1.734-9.666c1.372-7.763 1.134-13.418 11.491-19.334z"/><path fill="#fff" d="M51.937 121.961H44.23a13.256 13.256 0 0 1-13.123-10.823l-2.834-15.865h18.914zm13.848 13.089h7.74a13.25 13.25 0 0 1 13.112 10.811l2.845 15.866H70.567zm100.223 17.35a27.7 27.7 0 0 1-9.066-1.598 24.2 24.2 0 0 1-8.409-4.997l6.958-8.364a23.7 23.7 0 0 0 5.349 3.219 13.75 13.75 0 0 0 5.429 1.246 7.3 7.3 0 0 0 4.011-.85 2.75 2.75 0 0 0 1.236-2.413 2.27 2.27 0 0 0-.42-1.417 4.4 4.4 0 0 0-1.246-1.065 15 15 0 0 0-1.949-.963c-.76-.306-1.632-.646-2.63-1.02l-5.745-2.414a17.5 17.5 0 0 1-3.547-1.881 13.8 13.8 0 0 1-2.969-2.766 12.6 12.6 0 0 1-2.029-3.649 13.2 13.2 0 0 1-.748-4.533 12.5 12.5 0 0 1 1.281-5.564 14.1 14.1 0 0 1 3.547-4.533 17.1 17.1 0 0 1 5.428-3.082 20.2 20.2 0 0 1 6.913-1.134c2.748.02 5.472.523 8.046 1.485a20 20 0 0 1 7.276 4.68l-6.097 7.661a22 22 0 0 0-4.533-2.482 12.8 12.8 0 0 0-4.715-.85 6.8 6.8 0 0 0-3.547.782 2.57 2.57 0 0 0-1.28 2.335 2.79 2.79 0 0 0 1.813 2.527c1.201.589 2.878 1.28 4.997 2.085l5.667 2.199a15.1 15.1 0 0 1 6.663 4.759 12.53 12.53 0 0 1 2.346 7.865 13.7 13.7 0 0 1-4.726 10.324 17.4 17.4 0 0 1-5.666 3.23 22.5 22.5 0 0 1-7.638 1.178m25.401-.849V105.45h13.599a33.7 33.7 0 0 1 9.61 1.28 19.3 19.3 0 0 1 7.48 4.035 18.5 18.5 0 0 1 4.861 7.094 28 28 0 0 1 1.734 10.426 29 29 0 0 1-1.7 10.494 18.94 18.94 0 0 1-4.782 7.241 19.3 19.3 0 0 1-7.309 4.182 30.2 30.2 0 0 1-9.191 1.349zm12.205-9.792h.703c1.58.014 3.155-.188 4.68-.6a8.8 8.8 0 0 0 3.797-2.097 9.96 9.96 0 0 0 2.516-4.114 20.1 20.1 0 0 0 .929-6.663 19.5 19.5 0 0 0-.929-6.596 9.4 9.4 0 0 0-2.516-3.966 8.7 8.7 0 0 0-3.797-1.961 20 20 0 0 0-4.68-.521h-.703zm-82.489 11.368q-9.762 0-14.911-5.361-5.15-5.362-5.15-17.086v-25.022h11.376v26.094q0 6.863 2.229 9.58t6.456 2.716 6.533-2.716q2.306-2.717 2.306-9.58v-26.094h10.914v25.022q0 11.724-5.073 17.086-4.996 5.361-14.68 5.361M43.246 78.693a98.707 98.707 0 0 1 170.509 0h7.842A105.594 105.594 0 0 0 74.241 37.94a105.6 105.6 0 0 0-38.838 40.754zm170.509 99.613a98.705 98.705 0 0 1-170.51 0h-7.842a105.6 105.6 0 0 0 147.357 40.755 105.6 105.6 0 0 0 38.837-40.755z"/></svg>
